assets/images/vector/icons/chair_icon.svg

<svg fill="none" height="60" viewBox="0 0 53 60" width="53" xmlns="http://www.w3.org/2000/svg"><g stroke="#111" stroke-linecap="round" stroke-linejoin="round" stroke-width="10"><path d="m26.0449 37.5v20"/><path d="m26.0462 50-10.8333 5.8333"/><path d="m26.0449 50 10.8334 5.8333"/><path d="m46.2257 24.7867.5-1.4167c.4267-1.2066.4867-2.52.14-3.7533-4.1533-14.89332-5.2-17.06665-20.82-17.06665s-16.66665 2.17333-20.82332 17.06665c-.34333 1.2333-.28333 2.5467.14 3.7533l.5 1.4167"/><path d="m26.0456 37.5001h13.3333c1.84 0 3.3333-1.4534 3.3333-3.3334s-2.3833-5-10-5h-6.6666c-2.0067 0-4.2834 0-6.6667 0-7.6167 0-9.99999 3.0934-9.99999 5 0 1.88 1.49329 3.3334 3.33329 3.3334z"/></g></svg>

<svg width="53" height="60" viewBox="0 0 53 60" fill="none" xmlns="http://www.w3.org/2000/svg">
<path d="M26.0449 37.5V57.5" stroke="#111111" stroke-width="10" stroke-linecap="round" stroke-linejoin="round"/>
<path d="M26.0462 50L15.2129 55.8333" stroke="#111111" stroke-width="10" stroke-linecap="round" stroke-linejoin="round"/>
<path d="M26.0449 50L36.8783 55.8333" stroke="#111111" stroke-width="10" stroke-linecap="round" stroke-linejoin="round"/>
<path d="M46.2257 24.7867L46.7257 23.37C47.1524 22.1634 47.2124 20.85 46.8657 19.6167C42.7124 4.72338 41.6657 2.55005 26.0457 2.55005C10.4257 2.55005 9.37905 4.72338 5.22238 19.6167C4.87905 20.85 4.93905 22.1634 5.36238 23.37L5.86238 24.7867" stroke="#111111" stroke-width="10" stroke-linecap="round" stroke-linejoin="round"/>
<path d="M26.0456 37.5001H39.3789C41.2189 37.5001 42.7122 36.0467 42.7122 34.1667C42.7122 32.2867 40.3289 29.1667 32.7122 29.1667H26.0456C24.0389 29.1667 21.7622 29.1667 19.3789 29.1667C11.7622 29.1667 9.37891 32.2601 9.37891 34.1667C9.37891 36.0467 10.8722 37.5001 12.7122 37.5001H26.0456Z" stroke="#111111" stroke-width="10" stroke-linecap="round" stroke-linejoin="round"/>
</svg>
